@extra/icons/0nyX/symbolic-22/application-bitwig-project-folder.svg

<?xml version="1.0" encoding="UTF-8" standalone="no"?>
<svg xmlns="http://www.w3.org/2000/svg" version="1.1" viewBox="-3 -3 22 22">
 <path fill="#fff" d="m2 2c-0.554 0-1 0.446-1 1v11c0 0.554 0.446 1 1 1h12c0.554 0 1-0.446 1-1v-9c0-0.554-0.446-1.0039-1-1h-3.77l-2.23-2h-6zm1 3h10c0.554 0 1 0.446 1 1v7c0 0.554-0.446 1-1 1h-10c-0.554 0-1-0.446-1-1v-7c0-0.554 0.446-1 1-1z" fill-opacity="1"/>
</svg>

<?xml version="1.0" encoding="UTF-8" standalone="no"?>
<svg
   xmlns:dc="http://purl.org/dc/elements/1.1/"
   xmlns:cc="http://creativecommons.org/ns#"
   xmlns:rdf="http://www.w3.org/1999/02/22-rdf-syntax-ns#"
   xmlns:svg="http://www.w3.org/2000/svg"
   xmlns="http://www.w3.org/2000/svg"
   id="svg4"
   version="1.1"
   viewBox="-3 -3 22 22">
  <metadata
     id="metadata10">
    <rdf:RDF>
      <cc:Work
         rdf:about="">
        <dc:format>image/svg+xml</dc:format>
        <dc:type
           rdf:resource="http://purl.org/dc/dcmitype/StillImage" />
        <dc:title></dc:title>
      </cc:Work>
    </rdf:RDF>
  </metadata>
  <defs
     id="defs8" />
  <path
     id="rect819"
     d="M 2 2 C 1.446 2 1 2.446 1 3 L 1 7 L 1 14 C 1 14.554 1.446 15 2 15 L 14 15 C 14.554 15 15 14.554 15 14 L 15 6 L 15 5 C 15 4.446 14.553986 3.9960894 14 4 L 10.230469 4 L 8 2 L 2 2 z M 3 5 L 13 5 C 13.554 5 14 5.446 14 6 L 14 13 C 14 13.554 13.554 14 13 14 L 3 14 C 2.446 14 2 13.554 2 13 L 2 6 C 2 5.446 2.446 5 3 5 z "
     style="opacity:1;fill:#ffffff;fill-opacity:0.99390247;stroke:none" />
</svg>
